!!!!SEGMENT: pl-kk--kk-i-2--052-003_pekiel-bartlomiej--missa-secunda-credo.krn
!!!cenid: 16xx:1737
!!!COM: Pękiel, Bartłomiej
!!!COM-rismid: pe30105642
!!!CDT: <1633-~1670
!!!CNT: Polish
!!!OPR: Missa secunda
!!!OTL: Credo
!!!OMV: 003
!!!PDT:
!!!AGN: Sacred; Mass
!!!SMS-siglum: PL-Kk
!!!SMS-shelfmark: Kk.I.2
!!!SMS-shelfwork: 052-003 M
!!!NIFC-rismid: 300258070
!!!URL-scan: https://repozytorium.nifc.pl/islandora/object/pl-kk%3A750/datastream/PDF/view#page=91
!!!ONB-nifc: Części mszy: Kyrie, Gloria, Credo, Sanctus, Benedictus, Agnus Dei; skany: C: 0093-0095; A: 0196-0198; T: 0295-0297; B: 0398-0399
!!!key: F:ion
**kern	**text	**kern	**text	**kern	**text	**kern	**text
*part4	*part4	*part3	*part3	*part2	*part2	*part1	*part1
*staff4	*staff4	*staff3	*staff3	*staff2	*staff2	*staff1	*staff1
*I"BASVS	*	*I"TENOR	*	*I"ALTVS	*	*I"DISCANTVS	*
*I'B	*	*I'T	*	*I'A	*	*I'S	*
*Ibass	*	*Itenor	*	*Ialto	*	*Isoprn	*
*ICvox	*	*ICvox	*	*ICvox	*	*ICvox	*
*clefF4	*	*clefC4	*	*clefC4	*	*clefC3	*
*k[b-]	*	*k[b-]	*	*k[b-]	*	*k[b-]	*
*F:ion	*	*F:ion	*	*F:ion	*	*F:ion	*
*M2/1	*	*M2/1	*	*M2/1	*	*M2/1	*
*met(C|)	*	*met(C|)	*	*met(C|)	*	*met(C|)	*
*all\right	*	*all\right	*	*all\right	*	*all\right	*
=1-	=1-	=1-	=1-	=1-	=1-	=1-	=1-
0r	.	1F	Pa-	00r	.	00r	.
.	.	2C/	-trem	.	.	.	.
*	*	*2\right	*	*	*	*	*
.	.	2c\	Om-	.	.	.	.
=2-	=2-	=2-	=2-	=2-	=2-	=2-	=2-
1r	.	2B-\	-ni-	.	.	.	.
.	.	2A/	-po-	.	.	.	.
1C	Pa-	4G/	-ten-	.	.	.	.
.	.	4C/	.	.	.	.	.
.	.	4c\	.	.	.	.	.
.	.	4B-\	.	.	.	.	.
=3-	=3-	=3-	=3-	=3-	=3-	=3-	=3-
2FF/	-trem	2.A\	.	00r	.	00r	.
*2\right	*	*	*	*	*	*	*
2F\	Om-	.	.	.	.	.	.
.	.	4B-\	.	.	.	.	.
2E\	-ni-	4c\	.	.	.	.	.
.	.	4d\	.	.	.	.	.
2D/	-po-	2B-\	.	.	.	.	.
=4-	=4-	=4-	=4-	=4-	=4-	=4-	=4-
4C/	-ten-	2A/	.	.	.	.	.
4D/	.	.	.	.	.	.	.
4E/	.	4G/	.	.	.	.	.
4C/	.	4A/	.	.	.	.	.
4D/	.	4B-/	.	.	.	.	.
4E\	.	4G/	.	.	.	.	.
1F\	.	4A/	.	.	.	.	.
.	.	4F/	.	.	.	.	.
=5-	=5-	=5-	=5-	=5-	=5-	=5-	=5-
.	.	4A/	.	0r	.	1c	Pa-
.	.	4B-\	.	.	.	.	.
2E\	.	1c	.	.	.	.	.
1D	.	.	.	.	.	2F/	-trem
*	*	*	*	*	*	*2\right	*
!	!	!LO:TX:a:t=P:problem:# above	!	!	!	!	!
!	!	!LO:N:acc=#	!	!	!	!	!
.	.	2Bn\	.	.	.	2f\	om-
=6-	=6-	=6-	=6-	=6-	=6-	=6-	=6-
2C/	.	2c\	.	1G	Pa-	2e\	-ni-
!LO:N:acc=#	!	!	!	!	!	!	!
2BBn/	.	2d\	.	.	.	2d\	.
4C/	.	1c	-tem	2C/	-trem	1e	-po-
4D/	.	.	.	.	.	.	.
*	*	*	*	*2\right	*	*	*
4E/	.	.	.	2c\	om-	.	.
4C/	.	.	.	.	.	.	.
=7-	=7-	=7-	=7-	=7-	=7-	=7-	=7-
4D/	.	2r	.	2B-\	-ni-	2d\	-ten-
4E/	.	.	.	.	.	.	.
1F	.	2F/	Om-	2A/	.	2c/	.
.	.	2C/	-ni-	1G	.	1c	-tem
!	!	!LO:SIC:v:t=custos B	!	!	!	!	!
2E\	.	2c\	-po-	.	.	.	.
!	!	!LO:LB:g=original	!	!	!	!	!
=8-	=8-	=8-	=8-	=8-	=8-	=8-	=8-
2D/	.	2B-y\	-ten-	2F/	-po-	1r	.
2C/	.	1A	.	2E/	.	.	.
1BB-y	.	.	.	1D	-ten-	2r	.
.	.	2G/	.	.	.	2d/	fac-
=9-	=9-	=9-	=9-	=9-	=9-	=9-	=9-
1AA	-tem	2F/	.	1A	-tem	2d/	-to-
.	.	2E/	.	.	.	2c#X/	-re(m)
2r	.	2D/	-tem	1r	.	4d/	cae-
.	.	.	.	.	.	4cny/	.
!LO:SIC:v:t=custos G	!	!	!	!	!	!	!
2G\	Fa-	2r	.	.	.	4B-/	.
.	.	.	.	.	.	4A/	.
!LO:LB:g=original	!	!	!	!	!	!	!
=10-	=10-	=10-	=10-	=10-	=10-	=10-	=10-
2G\	-cto-	0r	.	2r	.	2B-/	.
2F#X\	-rem	.	.	2d\	fac-	2A/	.
2G\	Cae-	.	.	2d\	-to-	2G/	.
2E-X\	.	.	.	2c\	-rem	1g\	.
=11-	=11-	=11-	=11-	=11-	=11-	=11-	=11-
1D	.	2r	.	2.d\	.	.	.
.	.	2d\	Fac-	.	.	4f\	.
.	.	.	.	4e\	.	4g\	.
1AA	-li	2d\	-to-	2f\	cae-	1a	.
.	.	2c#X\	-rem	2e\	.	.	.
=12-	=12-	=12-	=12-	=12-	=12-	=12-	=12-
2r	.	2.d\	cae-	1d	.	1a	-li
2D/	fac-	.	.	.	.	.	.
.	.	4e\	.	.	.	.	.
2D/	-to-	2f\	.	1A	-li	1r	.
2C#X/	-rem	2e\	.	.	.	.	.
=13-	=13-	=13-	=13-	=13-	=13-	=13-	=13-
4D\	cae-	1.d	.	0r	.	2r	.
4Eny\	.	.	.	.	.	.	.
!	!	!	!	!	!	!LO:SIC:v:t=custos f	!
4Fny\	.	.	.	.	.	2f\	fa-
4G\	.	.	.	.	.	.	.
!	!	!	!	!	!	!LO:LB:g=original	!
2.A\	.	.	.	.	.	2f\	-cto-
!	!	!LO:TX:a:t=P:problem:# above	!	!	!	!	!
.	.	2c#X\	.	.	.	2e\	-rem
4G\	.	.	.	.	.	.	.
=14-	=14-	=14-	=14-	=14-	=14-	=14-	=14-
!LO:TX:a:t=P:problem:# above	!	!	!	!	!	!	!
4F#X\	.	2.d\	.	1r	.	1d	cae-
4D/	.	.	.	.	.	.	.
1G	.	.	.	.	.	.	.
.	.	4cny\	.	.	.	.	.
.	.	2B-X\	.	2r	.	2d\	-li
2Fny\	.	2A/	.	2d\	fac-	2f\	et
=15-	=15-	=15-	=15-	=15-	=15-	=15-	=15-
*	*	*	*	*	*	*lig	*
1E-X	.	1G	.	2d\	-to-	1g	ter-
.	.	.	.	2c\	-re(m)	.	.
2D/	-li	2d\	-li	4d\	cae-	1f	.
!	!	!	!	!LO:SIC:v:t=custos f	!	!	!
.	.	.	.	4e\	.	.	.
!	!	!	!	!LO:LB:g=original	!	!	!
2D/	&	2d\	&	2.f\	.	.	.
*	*	*	*	*	*	*Xlig	*
=16-	=16-	=16-	=16-	=16-	=16-	=16-	=16-
0F	ter-	2A/	ter-	.	.	1f	-rae
.	.	.	.	4e-X\	-li	.	.
.	.	1B-	.	2d\	&	.	.
.	.	.	.	1c	ter-	2r	.
.	.	2A/	.	.	.	1f\	vi-
=17-	=17-	=17-	=17-	=17-	=17-	=17-	=17-
1BB-	-rae	2B-\	-rae	2d\	-rae	.	.
.	.	2B-\	vi-	2d\	vi-	2d\	-ſi-
00r	.	2G/	-si-	2B-\	-si-	2.e\	-bi-
.	.	2.A/	-bi-	2.c\	-bi-	.	.
.	.	.	.	.	.	4e\	-li-
=18-	=18-	=18-	=18-	=18-	=18-	=18-	=18-
.	.	.	.	.	.	2c/	-um
.	.	4A/	-li-	4c\	-li-	.	.
!	!	!LO:SIC:v:t=custos F	!	!	!	!	!
.	.	2F/	-um	2A/	-um	2.d\	om-
!	!	!LO:PB:g=original	!	!	!	!	!
.	.	2F/	om-	2A/	om-	.	.
.	.	.	.	.	.	4c/	.
.	.	2E/	.	2G/	.	1c\	.
=19-	=19-	=19-	=19-	=19-	=19-	=19-	=19-
.	.	2.D/	.	2.F/	.	.	.
!	!	!	!	!	!	!LO:N:acc=#	!
.	.	.	.	.	.	2Bn/	-ni-
.	.	4D/	-ni-	4F/	-ni-	.	.
1Cny	Et	2C/	-um	1E	-um	1c	-um
.	.	2c\	Et	.	.	.	.
=20-	=20-	=20-	=20-	=20-	=20-	=20-	=20-
2D/	in-	2F/	in-	0r	.	0r	.
4BB-/	-ui-	1B-	-ui-	.	.	.	.
4C/	.	.	.	.	.	.	.
4D/	.	.	.	.	.	.	.
4Eny/	.	.	.	.	.	.	.
1F\	.	2A/	-ſi-	.	.	.	.
=21-	=21-	=21-	=21-	=21-	=21-	=21-	=21-
.	.	2.G/	-bi-	1c	Et	1c	Et
!LO:SIC:v:t=custos D	!	!	!	!	!	!	!
2E\	.	.	.	.	.	.	.
.	.	4A/	.	.	.	.	.
!LO:LB:g=original	!	!	!	!	!	!	!
2D/	.	4B-/	.	2F/	in	2d\	in-
.	.	4A/	.	.	.	.	.
1G\	.	4G/	.	1B-\	v-	4B-y/	-vi-
.	.	4A/	.	.	.	4c/	-si-
=22-	=22-	=22-	=22-	=22-	=22-	=22-	=22-
.	.	4B-/	.	.	.	4d\	.
.	.	4c\	.	.	.	4e\	.
2F\	-si-	2d\	.	2A/	-num	1f	.
!	!	!	!	!LO:N:acc=#	!	!	!
1.G	-bi-	1.G	.	2Bn\	Do-	.	.
.	.	.	.	1c\	.	2e-X\	.
=23-	=23-	=23-	=23-	=23-	=23-	=23-	=23-
.	.	.	.	.	.	2.d\	bi-
2G\	-li-	2G/	-li-	2Bny\	-mi-	.	.
.	.	.	.	.	.	4d\	-li-
!	!	!	!	!	!	!LO:N:acc=#	!
!	!	!	!	!	!	!LO:SIC:v:t=custos e	!
1C	-um	2G/	-um	1c	-nu(m)	1en	-um
.	.	1G/	&	.	.	.	.
!	!	!	!	!	!	!LO:LB:g=original	!
=24-	=24-	=24-	=24-	=24-	=24-	=24-	=24-
1.C	Et	.	.	1r	.	1.e	Et
.	.	2E/	in	.	.	.	.
.	.	2.A/	V-	2r	.	.	.
2AA/	in	.	.	2c\	Et	2c/	in
.	.	4G/	.	.	.	.	.
=25-	=25-	=25-	=25-	=25-	=25-	=25-	=25-
2.D/	u-	4F/	.	2A\	in	2.f\	u-
.	.	4E/	.	.	.	.	.
.	.	2D/	.	1d	v-	.	.
4C/	.	.	.	.	.	4e\	-num
2BB-/	.	1F	-num	.	.	4d\	.
.	.	.	.	.	.	4e\	.
2AA/	-num	.	.	2c\	-nu(m)	1f\	D(o-
=26-	=26-	=26-	=26-	=26-	=26-	=26-	=26-
2.GG/	D(o-	2.G/	Do-	2.B-y\	D(o-	.	.
.	.	.	.	.	.	2e\	-mi)-
4GG/	-mi)-	4G/	-mi-	4B-\	-mi-	.	.
!	!	!	!	!LO:SIC:v:t=custos f	!	!	!
1FF	-num	2C/	-nu(m)	1A	-num)	1f	-num
.	.	2.c\	JE-	.	.	.	.
!	!	!	!	!LO:PB:g=original	!	!	!
=27-	=27-	=27-	=27-	=27-	=27-	=27-	=27-
2.F\	JE-	.	.	1r	.	2r	.
.	.	4B-\	.	.	.	.	.
.	.	4A/	.	.	.	2.f\	JE-
!	!	!LO:SIC:v:t=custos F	!	!	!	!	!
4E\	.	4G/	.	.	.	.	.
!	!	!LO:LB:g=original	!	!	!	!	!
4D/	.	1F	.	2r	.	.	.
4C/	.	.	.	.	.	4e\	.
4BB-/	.	.	.	4d\	JE-	1d\	.
4AA/	.	.	.	4c\	.	.	.
=28-	=28-	=28-	=28-	=28-	=28-	=28-	=28-
2GG/	.	2G/	.	2B-\	.	.	.
2FF#X/	-sum	2A/	-sum	2A/	-ſum	2d\	-svm
1GG	CHri-	1B-	CHri-	1G	CHr(i-	1d	CHr(i-
=29-	=29-	=29-	=29-	=29-	=29-	=29-	=29-
2D/	-stu(m)	1A	-ſtu(m)	2F#X/	-st)um	1d	-stum)
2.D/	Fi-	.	.	2.F#/	Fi-	.	.
.	.	0r	.	.	.	2r	.
4D/	-li-	.	.	4F#/	-li-	.	.
2E\	-um	.	.	2G/	-um	2.c\	Fi-
=30-	=30-	=30-	=30-	=30-	=30-	=30-	=30-
*lig	*	*	*	*	*	*	*
1F	DE-	.	.	2.A/	DE-	.	.
.	.	.	.	.	.	4c\	-li-
.	.	.	.	.	.	2d\	-um
.	.	.	.	4B-\	.	.	.
1C	.	4.G/	Fi-	1c	.	2.e-X\	DE-
.	.	8G/	-li-	.	.	.	.
.	.	2A/	-um	.	.	.	.
.	.	.	.	.	.	4f\	.
*Xlig	*	*	*	*	*	*	*
=31-	=31-	=31-	=31-	=31-	=31-	=31-	=31-
2GG/	-i	1.B-	DE-	1d	-I	1.g	.
2G\	V-	.	.	.	.	.	.
2E\	-ni-	.	.	1.c	v-	.	.
1F\	.	4A/	-I	.	.	2f\	-I
.	.	4G/	.	.	.	.	.
=32-	=32-	=32-	=32-	=32-	=32-	=32-	=32-
.	.	4A/	V-	.	.	4.c/	V-
.	.	4F/	-ni-	.	.	.	.
.	.	.	.	.	.	8d\	-ni-
2E\	.	1c	-ge-	2c\	-ni-	4eny\	.
.	.	.	.	.	.	4c/	.
2.D/	-ge-	.	.	2.d\	-ge-	2.f\	-ge-
!	!	!LO:TX:a:t=P:problem:# above	!	!	!	!	!
!	!	!LO:N:acc=#	!	!	!	!	!
.	.	2Bn\	-ni-	.	.	.	.
!LO:SIC:v:t=custos C	!	!	!	!	!	!	!
4D/	-ni-	.	.	4d\	-ni-	4f\	-ni-
!LO:LB:g=original	!	!	!	!	!	!	!
=33-	=33-	=33-	=33-	=33-	=33-	=33-	=33-
2C/	-tum	1c	-tum	1G	-tum	1e	-tum
2C/	&	.	.	.	.	.	.
2D/	ex	1F	&	0r	.	1r	.
1F\	P(a-	.	.	.	.	.	.
=34-	=34-	=34-	=34-	=34-	=34-	=34-	=34-
.	.	2A/	ex	.	.	1c	Et
2E\	-tre)	1c	Pa-	.	.	.	.
1D	na-	.	.	1Fny	Et	2d\	ex
.	.	2B-y\	-tre	.	.	1f\	P(a-
=35-	=35-	=35-	=35-	=35-	=35-	=35-	=35-
1C	-tu(m)	2A/	na-	2A\	ex	.	.
!	!	!	!	!	!	!LO:SIC:v:t=custos d	!
.	.	2G/	.	1c	P(a-	2e\	-t)re
!	!	!	!	!	!	!LO:PB:g=original	!
1r	.	2F/	.	.	.	1d	na-
.	.	2G/	.	2B-X\	-t)re	.	.
=36-	=36-	=36-	=36-	=36-	=36-	=36-	=36-
2.F\	an-	1A	-tum	4c\	na-	1f	-tum
.	.	.	.	4B-\	.	.	.
.	.	.	.	4A/	.	.	.
4F\	-te	.	.	8G/L	.	.	.
.	.	.	.	8F/J	.	.	.
2E\	om-	0r	.	4G/	.	1r	.
.	.	.	.	4C/	-tum	.	.
4E\	-ni-	.	.	1c\	an-	.	.
4E\	-a	.	.	.	.	.	.
=37-	=37-	=37-	=37-	=37-	=37-	=37-	=37-
2.D/	sae-	.	.	.	.	2.f\	an-
!	!	!	!	!LO:SIC:v:t=custos c	!	!	!
.	.	.	.	2B-\	-te	.	.
4D/	-cu-	.	.	.	.	4f\	-te
!	!	!	!	!LO:LB:g=original	!	!	!
1C	-la	1r	.	4c\	om-	2e\	om-
.	.	.	.	8B-\L	.	.	.
.	.	.	.	8A\J	.	.	.
.	.	.	.	4G/	.	4e\	-ni-
.	.	.	.	4A/	.	4e\	-a
=38-	=38-	=38-	=38-	=38-	=38-	=38-	=38-
4BB-/	Om-	2.B-\	an-	2.B-\	.	4d\	sae-
4C/	.	.	.	.	.	4e\	.
4D/	.	.	.	.	.	4f\	.
4BB-/	.	4B-\	-te	4B-\	ni-	4g\	.
4F\	.	2A/	om-	1c	-a	2.f\	.
4C/	.	.	.	.	.	.	.
2.F\	.	4A/	-ni-	.	.	.	.
!	!	!LO:SIC:v:t=custos G	!	!	!	!	!
.	.	4A/	-a	.	.	4f\	-cu-
!	!	!LO:LB:g=original	!	!	!	!	!
=39-	=39-	=39-	=39-	=39-	=39-	=39-	=39-
.	.	1.G	sae-	2.c\	om-	2g\	-la
4F\	-ni-	.	.	.	.	.	.
2E\	-a	.	.	.	.	2.g\	sae-
.	.	.	.	4c\	-ni-	.	.
!	!	!	!	!LO:N:acc=#	!	!	!
1.G	sae-	.	.	2Bn\	-a	.	.
.	.	.	.	.	.	4f\	.
.	.	2G/	-cu-	1c\	sae-	2e-X\	.
=40-	=40-	=40-	=40-	=40-	=40-	=40-	=40-
.	.	2G/	-la	.	.	2.d\	.
!	!	!	!	!LO:N:acc=#	!	!	!
2G\	-cu-	2G/	DE-	2Bn\	-cu-	.	.
.	.	.	.	.	.	4d\	-cu-
!	!	!	!	!	!	!LO:N:acc=#	!
2C/	-la	2G/	-um	1c	-la	2en,<\	-la
2C/	DE-	2G/	de	.	.	2e\	DE-
=41-	=41-	=41-	=41-	=41-	=41-	=41-	=41-
2C/	-u(m)	1A	DE-	2r	.	2e\	-u(m)
2C/	de	.	.	2A/	De-	2e\	de
1D	DE-	1F	-o	2A/	-um	1f	DE-
.	.	.	.	2A/	de	.	.
=42-	=42-	=42-	=42-	=42-	=42-	=42-	=42-
1BB-	-o	2r	.	4B-y\	DE-	1f	-o
.	.	.	.	4c\	.	.	.
.	.	2B-\	Lu-	4d\	.	.	.
.	.	.	.	8c\L	.	.	.
.	.	.	.	8d\J	.	.	.
2r	.	2G/	-men	2e-X\	.	1g	Lu-
!LO:SIC:v:t=custos D	!	!	!	!	!	!	!
2E-X\	Lu-	2E-X/	de	2c\	.	.	.
!LO:LB:g=original	!	!	!	!	!	!	!
=43-	=43-	=43-	=43-	=43-	=43-	=43-	=43-
2D/	-men	2.B-\	Lu-	2d\	-o	2f\	-men
2BB-/	de	.	.	2d\	Lu-	2d\	de
.	.	4B-\	-mi-	.	.	.	.
2.F\	Lu-	1A	-ne	2c\	-men	2.f\	Lu-
.	.	.	.	2A/	de	.	.
4F\	-mi-	.	.	.	.	4f\	-mi-
=44-	=44-	=44-	=44-	=44-	=44-	=44-	=44-
2C/	-ne	4G/	DE-	2.c\	Lu-	1e-X	-ne
.	.	4C/	.	.	.	.	.
2C/	DE-	1c	-u(m)	.	.	.	.
.	.	.	.	4c\	-mi-	.	.
!	!	!	!	!	!	!LO:SIC:v:t=custos a	!
2GG/	-u(m)	.	.	2d\	-ne	1r	.
(1G\	ver-	2B-\	Ve-	2r	.	.	.
!	!	!	!	!	!	!LO:LB:g=original	!
=45-	=45-	=45-	=45-	=45-	=45-	=45-	=45-
.	.	1A	-ru(m)	4A/	DE-	2.a\	DE-
!	!	!	!	!LO:SIC:v:t=custos d	!	!	!
.	.	.	.	4D/	-u(m)	.	.
!	!	!	!	!LO:LB:g=original	!	!	!
2F\)	.	.	.	1d	Ve-	.	.
.	.	.	.	.	.	4d/	-um
2E-X\	-um	2G/	de	.	.	1g	ve-
2E-\	de	1e-X\	DE-	4c\	-rum	.	.
.	.	.	.	4B-\	.	.	.
=46-	=46-	=46-	=46-	=46-	=46-	=46-	=46-
2F\	DE-	.	.	2A\	de	2f\	-ru(m)
2BB-/	-o	2d\	-o	2B-\	DE-	2f\	de
0F	Ve-	2c\	ve-	2c\	-o	2f\	DE-
.	.	1B-\	.	2d\	ve-	2f\	-o
=47-	=47-	=47-	=47-	=47-	=47-	=47-	=47-
.	.	.	.	1c	.	1f	ve-
.	.	2A/	.	.	.	.	.
1BB-	-ro	2B-\	-ro	2d,<\	-ro	1f	-ro
.	.	1B-\	ge-	1d\	Ge-	.	.
=48-	=48-	=48-	=48-	=48-	=48-	=48-	=48-
0r	.	.	.	.	.	2.f\	Ge-
.	.	2A/	-ni-	2c\	-ni-	.	.
.	.	.	.	.	.	4f\	-ni-
.	.	2G/	-tum	2B-\	-tu(m)	4e-X\	-tum
.	.	.	.	.	.	4e-\	n(on)
!	!	!LO:SIC:v:t=custos E-	!	!	!	!	!
.	.	2F/	non	2A/	n(on)	1d\	fac-
!	!	!LO:LB:g=original	!	!	!	!	!
=49-	=49-	=49-	=49-	=49-	=49-	=49-	=49-
2r	.	1E-X	fac-	2.G/	fa-	.	.
1G	Con-	.	.	.	.	2c\	.
.	.	.	.	4A/	.	.	.
.	.	1D	-tum	2B-\	.	1d	-tu(m)
2F\	-sub-	.	.	2A/	-ctum	.	.
=50-	=50-	=50-	=50-	=50-	=50-	=50-	=50-
2D\	-stan-	2d\	Con-	00r	.	0r	.
2Eny\	-ti-	2c\	-sub-	.	.	.	.
2F\	-a-	2A/	-sta-	.	.	.	.
2D/	-le(m)	2B-\	.	.	.	.	.
=51-	=51-	=51-	=51-	=51-	=51-	=51-	=51-
4E\	Pa-	1c	.	.	.	1.g	con-
4D\	.	.	.	.	.	.	.
4E\	.	.	.	.	.	.	.
4F\	.	.	.	.	.	.	.
4G\	.	2B-\	-lem	.	.	.	.
4A\	.	.	.	.	.	.	.
1B-\	.	1d\	Pa-	.	.	2f\	-sub-
=52-	=52-	=52-	=52-	=52-	=52-	=52-	=52-
.	.	.	.	0r	.	2d\	-st(an-
4A\	.	4c\	.	.	.	2eny\	-ti)-
4G\	.	4B-\	.	.	.	.	.
2F\	.	4c\	.	.	.	2.f\	-a-
.	.	4A/	.	.	.	.	.
2D/	.	1d\	.	.	.	.	.
.	.	.	.	.	.	4f\	-lem
=53-	=53-	=53-	=53-	=53-	=53-	=53-	=53-
2.A\	.	.	.	1A	per	1e	Pa-
!	!	!LO:TX:a:t=P:problem:# above	!	!	!	!	!
.	.	2c#X\	-tri	.	.	.	.
4G\	.	.	.	.	.	.	.
2F#X\	.	1d	.	1D	-que(m)	1d	-tri
1G\	.	.	.	.	.	.	.
=54-	=54-	=54-	=54-	=54-	=54-	=54-	=54-
.	.	00r	.	4.d\	om-	1d	per
.	.	.	.	8d\	-ni-	.	.
!LO:TX:a:t=P:problem:# above	!	!	!	!	!	!	!
!LO:SIC:v:t=custos G	!	!	!	!	!	!	!
2F#X\	.	.	.	2A/	-a	.	.
*	*	*	*	*lig	*	*	*
!LO:PB:g=original	!	!	!	!	!	!	!
1G	tri	.	.	1B-	fa-	2G/	que(m)
.	.	.	.	.	.	2.g\	om-
=55-	=55-	=55-	=55-	=55-	=55-	=55-	=55-
1D	per	.	.	1A	.	.	.
.	.	.	.	.	.	4g\	-ni-
!	!	!	!	!	!	!LO:SIC:v:t=custos g	!
.	.	.	.	.	.	2f#X\	-a
*	*	*	*	*Xlig	*	*	*
*	*	*	*	*lig	*	*	*
!	!	!	!	!	!	!LO:LB:g=original	!
2GG/	quem	.	.	1B-	.	2g\	fa-
2.G\	Om-	.	.	.	.	2g\	-cta
=56-	=56-	=56-	=56-	=56-	=56-	=56-	=56-
.	.	1d	per	1A	.	1a	sunt
4G\	-ni-	.	.	.	.	.	.
2Fny\	-a	.	.	.	.	.	.
*	*	*	*	*Xlig	*	*	*
1E-X	.	2G/	quem	2B-\	.	2g\	fa-
.	.	2.cny\	o-	2G/	.	1e-X\	.
=57-	=57-	=57-	=57-	=57-	=57-	=57-	=57-
1.F	fac-	.	.	1F	-cta	.	.
.	.	4c\	-(mn)i-	.	.	.	.
.	.	2B-\	-a	.	.	2d\	.
!	!	!	!	!LO:SIC:v:t=custos F	!	!	!
.	.	4A\	fac-	1F	sunt	2.c/	.
.	.	2B-\	.	.	.	.	.
2F\	-ta	.	.	.	.	.	.
.	.	4A\	-ta	.	.	4c/	-cta
!	!	!	!	!LO:LB:g=original	!	!	!
=58-	=58-	=58-	=58-	=58-	=58-	=58-	=58-
1BB-	su(n)t	1B-	sunt	2r	.	1d	sunt
.	.	.	.	2F/	qui	.	.
2r	.	0r	.	1B-	pro-	0r	.
2BB-/	qui	.	.	.	.	.	.
=59-	=59-	=59-	=59-	=59-	=59-	=59-	=59-
1F	p(ro)-	.	.	2A/	-pter	.	.
.	.	.	.	2F/	nos	.	.
2Eny\	-p(te)r	1r	.	2.c\	ho-	1r	.
2C/	nos	.	.	.	.	.	.
.	.	.	.	4c\	-mi-	.	.
=60-	=60-	=60-	=60-	=60-	=60-	=60-	=60-
2.G\	ho-	2r	.	1B-	-nes	2r	.
.	.	2G/	Et	.	.	2g\	Et
4G\	-i-	.	.	.	.	.	.
1D	-nes	2A/	pro-	1r	.	2fny\	pro-
!	!	!LO:SIC:v:t=custos c	!	!	!	!	!
.	.	2B-\	-pter	.	.	2d\	-pter
!	!	!LO:LB:g=original	!	!	!	!	!
=61-	=61-	=61-	=61-	=61-	=61-	=61-	=61-
2r	.	4c\	no-	2r	.	1eny	no-
.	.	4B-\	.	.	.	.	.
2C/	Et	4A/	.	2c\	Et	.	.
.	.	4G/	.	.	.	.	.
2D/	pro-	2F/	.	2B-\	p(ro)-	2f\	.
2E\	-pter	2c\	.	2G/	-p(te)r	4e\	.
.	.	.	.	.	.	4d\	.
=62-	=62-	=62-	=62-	=62-	=62-	=62-	=62-
2.F\	nos-	2c\	-stram	1A	no-	2c\	stram
*	*	*	*	*	*	*	*ij
.	.	2A/	Sa-	.	.	2c\	Et
4E\	.	.	.	.	.	.	.
2D/	.	1A	-lu-	2f\	-stram	2d\	pro-
!LO:TX:a:t=P:problem:# below	!	!	!	!	!	!	!
2C#X/	.	.	.	2eny\	.	2e\	-pter
=63-	=63-	=63-	=63-	=63-	=63-	=63-	=63-
1D	.	2A/	-te(m)	1.d	sa-	1f	no-
.	.	2A/	Sa-	.	.	.	.
2BB-/	-stram	0.G	-lu-	.	.	2f\	.
2Cny/	sa-	.	.	2c\	-lu-	2e-X\	-stram
*	*	*	*	*	*	*	*Xij
=64-	=64-	=64-	=64-	=64-	=64-	=64-	=64-
!	!	!	!	!LO:N:acc=#	!	!	!
0GG	-lu-	.	.	2Bn\	.	2d\	Sa-
.	.	.	.	2e-X\	.	1c	-lu-
.	.	.	.	1d	.	.	.
!	!	!	!	!	!	!LO:N:acc=#	!
.	.	.	.	.	.	2Bn/	.
=65-	=65-	=65-	=65-	=65-	=65-	=65-	=65-
1C	-tem	1G	-tem	1c	-tem	1c	-tem
1C	des-	2G/	des-	2r	.	1eny	des-
.	.	2.A/	-cen-	2c\	des-	.	.
=66-	=66-	=66-	=66-	=66-	=66-	=66-	=66-
2.D/	-cen-	.	.	4A/	-cen-	2.f\	-cen-
.	.	4G/	.	8B-y\L	.	.	.
.	.	.	.	8c\J	.	.	.
.	.	2.F/	.	2.d\	.	.	.
!LO:SIC:v:t=custos BB	!	!	!	!	!	!LO:SIC:v:t=custos d	!
4C/	.	.	.	.	.	4e\	.
!LO:LB:g=original	!	!	!	!	!	!LO:LB:g=original	!
4BB-/	.	.	.	.	.	4d\	.
4AA/	.	8G/L	.	4c\	.	8e\L	.
.	.	8A/J	.	.	.	8f\J	.
2GG/	.	2B-/	.	2B-\	.	1g\	.
=67-	=67-	=67-	=67-	=67-	=67-	=67-	=67-
2.AA/	dit	2A/	-dit	2c\	-dit	.	.
!	!	!	!	!LO:SIC:v:t=custos c	!	!	!
.	.	2A/	de	2c\	de	2f\	-dit
4BB-/	de	.	.	.	.	.	.
!	!	!	!	!LO:LB:g=original	!	!	!
0C	cae-	2G/	cae-	4c\	cae-	2e\	de
.	.	.	.	4B-\	.	.	.
.	.	4A/	.	4A/	.	1f\	cae-
.	.	4B-\	.	8G/L	.	.	.
.	.	.	.	8F/J	.	.	.
=68-	=68-	=68-	=68-	=68-	=68-	=68-	=68-
.	.	1c	.	1G	.	.	.
.	.	.	.	.	.	2e\	.
1FFnyl;	-lis	1cl;<	-lis	1Al;	-lis	1fl;<	-lis
!	!	!LO:PB:g=original	!	!	!	!	!
=69||	=69||	=69||	=69||	=69||	=69||	=69||	=69||
*M2/1	*	*M2/1	*	*M2/1	*	*M2/1	*
*met(C|)	*	*met(C|)	*	*met(C|)	*	*met(C|)	*
1F	ET	1c	ET	1A	ET	1f	ET
2BB-/	in-	2d\	in-	2B-\	in-	2f\	in-
2AA/	-car-	4c\	-car-	2c\	-car-	2f\	-car-
.	.	2c\	-na-	.	.	.	.
=70-	=70-	=70-	=70-	=70-	=70-	=70-	=70-
2.BB-/	-na-	.	.	2.d\	-na-	2.f\	-na-
.	.	8B-\L	.	.	.	.	.
.	.	8A\J	.	.	.	.	.
.	.	4.B-\	.	.	.	.	.
4BB-/	-t(us)	.	.	4d\	-t(us)	4f\	-t(us)
.	.	8B-\	-t(us)	.	.	.	.
1FF	e(st)	1A	e(st)	1c	e(st)	2f\	e(st)
.	.	.	.	.	.	1c\	de
=71-	=71-	=71-	=71-	=71-	=71-	=71-	=71-
2F\	de	1F	de	1A	de	.	.
2.F\	Spi-	.	.	.	.	2.d\	Spi-
!	!	!	!	!LO:N:acc=#	!	!	!
.	.	4.G/	Spi-	4.Bn\	Spi-	.	.
4F\	-ri-	.	.	.	.	4d\	-ri-
.	.	8G/	-ri-	8B\	-ri-	.	.
2E\	-tu	2G/	-tu	4c\	-tu	2e\	-tu
.	.	.	.	2c\	San-	.	.
=72-	=72-	=72-	=72-	=72-	=72-	=72-	=72-
1D	San-	2A/	San-	.	.	1f	San-
!	!	!	!	!LO:TX:a:t=P:problem:# above	!	!	!
!	!	!	!	!LO:N:acc=#	!	!	!
.	.	.	.	8Bn\L	.	.	.
.	.	.	.	8A\J	.	.	.
!	!	!	!	!LO:TX:a:t=P:problem:# above	!	!	!
!	!	!	!	!LO:N:acc=#	!	!	!
.	.	4G/	.	2Bn\	.	.	.
.	.	4F/	.	.	.	.	.
2C/	-cto	2G/	cto	2c\	-cto	2e\	-cto
1C/	ex	1G/	ex	1c\	ex	1e\	ex
=73-	=73-	=73-	=73-	=73-	=73-	=73-	=73-
.	.	.	.	.	.	.	.
2BB-/	Ma-	2G/	Ma-	2d\	Ma-	2g\	Ma-
2AA/	-ri-	2A/	-ri-	2c\	-ri-	2f#X\	-ri-
2GG/	-a	2B-/	-a	2d\	-a	4g\	-a
.	.	.	.	.	.	2g\	Vir-
=74-	=74-	=74-	=74-	=74-	=74-	=74-	=74-
2.AA/	Vir-	2.A/	Vir-	2.c\	Vir-	.	.
.	.	.	.	.	.	8f#X\L	.
.	.	.	.	.	.	8e\J	.
.	.	.	.	.	.	4.f#\	.
4AA/	-gi-	4A/	-gi-	4c\	-gi-	.	.
!	!	!	!	!	!	!LO:SIC:v:t=custos g	!
.	.	.	.	.	.	8f#\	-gi-
!	!	!	!	!LO:SIC:v:t=custos B	!	!LO:LB:g=original	!
1GG	-ne	2D/	-ne	1B-y	-ne	1g	-ne
.	.	2d\	Et	.	.	.	.
!	!	!	!	!LO:PB:g=original	!	!	!
=75-	=75-	=75-	=75-	=75-	=75-	=75-	=75-
2r	.	2B-\	Ho-	2r	.	1d	&
2G\	Et	2G/	-mo	2B-\	Et	.	.
2E-X\	Ho-	1.B-	fa-	2G/	Ho-	2e-X\	Ho-
2BB-/	-mo	.	.	2D/	-mo	2d\	-mo
=76-	=76-	=76-	=76-	=76-	=76-	=76-	=76-
1.C	fac-	.	.	2E/	fac-	1.c	fac-
.	.	2A/	.	1F	.	.	.
.	.	2.G/	.	.	.	.	.
2C/	-t(us)	.	.	2E/	-t(us)	2c/	-t(us)
.	.	4G/	-ctus	.	.	.	.
=77-	=77-	=77-	=77-	=77-	=77-	=77-	=77-
0FFl;	e(st)	0Al;	e(st)	0Fl;	e(st)	0cl;	e(st)
!	!	!LO:LB:g=original	!	!	!	!	!
=78||	=78||	=78||	=78||	=78||	=78||	=78||	=78||
*M2/1	*	*M2/1	*	*M2/1	*	*M2/1	*
*met(C|)	*	*met(C|)	*	*met(C|)	*	*met(C|)	*
1.F	Cru-	0r	.	00r	.	00r	.
2D/	-ci-	.	.	.	.	.	.
=79-	=79-	=79-	=79-	=79-	=79-	=79-	=79-
1G	-fi-	1r	.	.	.	.	.
2F\	-x(us)	1.c	Cru-	.	.	.	.
1F\	e-	.	.	.	.	.	.
=80-	=80-	=80-	=80-	=80-	=80-	=80-	=80-
.	.	.	.	00r	.	00r	.
2F\	-ti-	2A\	-ci-	.	.	.	.
2BB-/	-am	1d	-fi-	.	.	.	.
2D/	pro	.	.	.	.	.	.
=81-	=81-	=81-	=81-	=81-	=81-	=81-	=81-
2F\	no-	2c\	-xus	.	.	.	.
4E\	.	1c	e-	.	.	.	.
4D\	.	.	.	.	.	.	.
2E\	.	.	.	.	.	.	.
2C/	.	2c\	-ti-	.	.	.	.
=82-	=82-	=82-	=82-	=82-	=82-	=82-	=82-
4D\	.	2F/	-am	0r	.	00r	.
4E\	.	.	.	.	.	.	.
4F\	.	2A/	pro	.	.	.	.
4D\	.	.	.	.	.	.	.
2E\	.	2.c\	no-	.	.	.	.
2C/	.	.	.	.	.	.	.
.	.	8B-\L	.	.	.	.	.
.	.	8A\J	.	.	.	.	.
=83-	=83-	=83-	=83-	=83-	=83-	=83-	=83-
2D/	.	2B-\	.	2r	.	.	.
2E\	.	2G/	.	1c	Cru-	.	.
2F\	-bis	4A/	.	.	.	.	.
.	.	4B-\	.	.	.	.	.
2A\	pro	1c\	.	2A\	-ci-	.	.
=84-	=84-	=84-	=84-	=84-	=84-	=84-	=84-
2.G\	no-	.	.	1d	-fix-	1r	.
.	.	1B-	.	.	.	.	.
4F\	.	.	.	.	.	.	.
2E\	.	.	.	1c	-us	2r	.
4F\	.	4A/	.	.	.	1f\	Cru-
4E\	.	4G/	.	.	.	.	.
=85-	=85-	=85-	=85-	=85-	=85-	=85-	=85-
4D/	.	2A/	.	2.d\	e-	.	.
4C/	.	.	.	.	.	.	.
2BB-/	.	2.B-/	.	.	.	2d\	-ci-
.	.	.	.	4d\	-ti-	.	.
1E-X	.	.	.	2G/	-am	1g	-fix-
.	.	4A/	.	.	.	.	.
.	.	4G/	.	2e-X\	pro	.	.
.	.	4A/	.	.	.	.	.
=86-	=86-	=86-	=86-	=86-	=86-	=86-	=86-
2BB-/	-bis	1.B-	.	1.d	no-	2f\	-us
2BB-/	pro	.	.	.	.	1f	e-
1.F	no-	.	.	.	.	.	.
.	.	4A/	.	4c\	.	2f\	-ti-
.	.	4G/	.	4B-\	.	.	.
=87-	=87-	=87-	=87-	=87-	=87-	=87-	=87-
.	.	2A/	.	2c\	.	2c\	-am
!LO:SIC:v:t=custos D	!	!	!	!	!	!	!
2Eny\	.	2G/	.	2c\	-bis	2e\	pro
!LO:LB:g=original	!	!	!	!	!	!	!
2D/	.	2F/	.	4c\	pro	2f\	no-
.	.	.	.	4B-\	.	.	.
4C/	.	1G/	.	1B-\	no-	4e-X\	.
4BB-/	.	.	.	.	.	4d\	.
=88-	=88-	=88-	=88-	=88-	=88-	=88-	=88-
1C	.	.	.	.	.	1e-X	.
.	.	4F/	.	2A/	.	.	.
.	.	4E-X/	.	.	.	.	.
!	!	!LO:SIC:v:t=custos B	!	!	!	!	!
1BB-	-bis	2F/	-bis	2B-\	-bis	1d	-bis
!	!	!LO:LB:g=original	!	!LO:SIC:v:t=custos d	!	!	!
.	.	2B-\	sub	2d\	sub	.	.
!	!	!	!	!LO:LB:g=original	!	!	!
=89-	=89-	=89-	=89-	=89-	=89-	=89-	=89-
0r	.	2.B-\	Pon-	2.d\	Pon-	2f\	sub
.	.	.	.	.	.	4.f\	Pon-
.	.	4A/	-ti-	4c\	-ti-	.	.
!	!	!	!	!	!	!LO:SIC:v:t=custos e	!
.	.	.	.	.	.	8f\	-ti-
!	!	!	!	!	!	!LO:PB:g=original	!
.	.	2G/	-o	2B-\	-o	2e-X\	-o
.	.	2F#X/	Pi-	2A\	Pi-	2d\	Pi-
=90-	=90-	=90-	=90-	=90-	=90-	=90-	=90-
!	!	!	!	!LO:N:acc=#	!	!	!
1r	.	0G	-la-	2Bn\	-la-	2e-X\	.
.	.	.	.	1c	.	4d\	-la-
.	.	.	.	.	.	4c/	.
2r	.	.	.	.	.	1d	.
1G\	paſ-	.	.	2B\	.	.	.
=91-	=91-	=91-	=91-	=91-	=91-	=91-	=91-
.	.	2C/	-to	1c	-to	1c	-to
2E\	-s(us)	1c	paſ-	.	.	.	.
1F	.	.	.	1A	paſ-	1r	.
.	.	1A/	-s(us)	.	.	.	.
=92-	=92-	=92-	=92-	=92-	=92-	=92-	=92-
1D	Et	.	.	2F/	-s(us)	1f	paſ-
.	.	2.d\	Et	1f	paſ-	.	.
1.BB-	Se-	.	.	.	.	1d	sus
.	.	4c\	.	.	.	.	.
.	.	4B-\	.	2d\	-s(us)	.	.
.	.	4Fny/	.	.	.	.	.
=93-	=93-	=93-	=93-	=93-	=93-	=93-	=93-
.	.	2G/	se-	2.c\	Et	4eny\	&
.	.	.	.	.	.	4c/	se-
2AA/	-pul-	2A/	.	.	.	1f	-pul-
.	.	.	.	4c\	se-	.	.
2.GG/	.	2d\	-pul-	2.B-y\	-pul-	.	.
.	.	4c\	-t(us)	.	.	2e\	-t(us)
4GG/	-t(us)	4B-\	.	4B-\	-t(us)	.	.
=94-	=94-	=94-	=94-	=94-	=94-	=94-	=94-
1FF	est	1c	e(st)	1A	e(st)	1f	e(st)
=95-	=95-	=95-	=95-	=95-	=95-	=95-	=95-
*M3/1	*	*M3/1	*	*M3/1	*	*M3/1	*
00.r	.	00.r	.	1F	Et	1f	Et
.	.	.	.	1G	re-	1e-X	re-
.	.	.	.	1A	-ſur-	1c	-ſur-
=96-	=96-	=96-	=96-	=96-	=96-	=96-	=96-
.	.	.	.	0.B-	-re-	0.d	-re-
=97-	=97-	=97-	=97-	=97-	=97-	=97-	=97-
0.r	.	0.r	.	0.A	-xit	0.c	-xit
=98-	=98-	=98-	=98-	=98-	=98-	=98-	=98-
*	*	*	*	*	*ij	*	*ij
1F	Et	1F	Et	1A	Et	1c	Et
1E-X	re-	1G	re-	1B-	re-	1.e-X	re-
1C	-ſur-	1A	-ſur-	1c	-ſur-	.	.
.	.	.	.	.	.	2e-\	-ſur-
=99-	=99-	=99-	=99-	=99-	=99-	=99-	=99-
*	*	*col	*	*	*	*	*
0.BB-	-re-	0.B-	-re-	0.F	-re-	0.d	-re-
*	*	*Xcol	*	*	*	*	*
=100-	=100-	=100-	=100-	=100-	=100-	=100-	=100-
1F	-xit	1A	-xit	1F	-xit	0c	-xit
*	*	*	*	*	*Xij	*	*Xij
1.F	ter-	1.A	ter-	1r	.	.	.
.	.	.	.	1r	.	[1f	ter-
2Eny\	-ti-	2G/	-ti-	.	.	.	.
!	!	!	!	!	!	!LO:LB:g=original	!
=101-	=101-	=101-	=101-	=101-	=101-	=101-	=101-
!	!	!	!	!	!	!LO:N:xstem:cue:vis=4	!
1D	-a	1F	-a	1.d	ter-	2f]	.
.	.	.	.	.	.	2eny\	-ti-
1.G	ter-	1.B-	di-	.	.	0d	-a
.	.	.	.	2c\	-ti-	.	.
!	!	!	!	!LO:SIC:v:t=custos e	!	!	!
.	.	.	.	1B-	-a	.	.
2F\	-ti-	2A\	-e	.	.	.	.
!	!	!	!	!LO:LB:g=original	!	!	!
=102-	=102-	=102-	=102-	=102-	=102-	=102-	=102-
1E-X	-a	1B-	di-	2e-X\	di-	1g	di-
.	.	.	.	2d\	.	.	.
*col	*	*lig	*	*	*	*col	*
0F	di-	1B-	-e	2c\	.	0f	.
.	.	.	.	2B-\	.	.	.
!	!	!LO:SIC:v:t=custos B	!	!	!	!	!
.	.	1A	.	1c	.	.	.
*Xcol	*	*Xlig	*	*	*	*Xcol	*
!	!	!LO:LB:g=original	!	!	!	!	!
=103-	=103-	=103-	=103-	=103-	=103-	=103-	=103-
0BB-	-e	0B-	se-	0d	-e	0f	-e
1BB-	se-	1B-	-cun-	1d	se-	1f	se-
=104-	=104-	=104-	=104-	=104-	=104-	=104-	=104-
0F	-c(un)-	0A	-dum	0c	-cun-	0f	-cun-
!	!	!LO:TX:a:t=P:problem:# above	!	!	!	!	!
!LO:SIC:v:t=custos C	!	!LO:N:acc=#	!	!	!	!	!
1D	-du(m)	1Bn	.	1d	-dum	1f	-dum
!LO:LB:g=original	!	!	!	!	!	!	!
=105-	=105-	=105-	=105-	=105-	=105-	=105-	=105-
*col	*	*	*	*col	*	*	*
1C	scrip-	1c	Scrip-	1G	scrip-	1e-X	scri-
*	*	*lig	*	*	*	*col	*
0GG	-tu-	1c	-tu-	0G	-tu-	0d	-ptu-
!	!	!LO:TX:a:t=P:problem:# above	!	!	!	!	!
!	!	!LO:N:acc=#	!	!	!	!	!
.	.	1Bn	.	.	.	.	.
*Xcol	*	*Xlig	*	*Xcol	*	*Xcol	*
=106-	=106-	=106-	=106-	=106-	=106-	=106-	=106-
*M2/1	*	*M2/1	*	*M2/1	*	*M2/1	*
*met(C|)	*	*met(C|)	*	*met(C|)	*	*met(C|)	*
2C/	-ras	1c	-ras	1G	-ras	1eny	-ras
4.C/	Et	.	.	.	.	.	.
8C/	as-	.	.	.	.	.	.
8D\L	-cen-	4.F/	Et	0r	.	1r	.
8Eny\	.	.	.	.	.	.	.
8F\	.	.	.	.	.	.	.
8D\J	.	8F/	as-	.	.	.	.
8E\L	.	8G/L	-cen-	.	.	.	.
8F\	.	8A/	.	.	.	.	.
8G\	.	8B-y/	.	.	.	.	.
8E\J	.	8G/J	.	.	.	.	.
=107-	=107-	=107-	=107-	=107-	=107-	=107-	=107-
4.F\	.	8A\L	.	.	.	4.c/	Et
.	.	8B-\J	.	.	.	.	.
.	.	2c\	.	.	.	.	.
8E\	.	.	.	.	.	8c/	aſ-
2D/	.	.	.	.	.	8d\L	-cen-
.	.	.	.	.	.	8e\	.
.	.	8c\	dit	.	.	8f\	.
!	!	!LO:N:acc=#	!	!	!	!	!
.	.	8Bn\	in	.	.	8d\J	.
4C/	.	8c\L	cae-	4.G/	Et	8e\L	.
.	.	8d\	.	.	.	8f\J	.
8C/	-dit	8e\	.	.	.	2g\	.
8BB-/	in	8d\J	.	8G/	as-	.	.
(2AA/	Cae-	2c\	.	8A/L	-cen-	.	.
.	.	.	.	8B-/	.	.	.
.	.	.	.	8c/	.	4f#X\	.
.	.	.	.	8A/J	.	.	.
=108-	=108-	=108-	=108-	=108-	=108-	=108-	=108-
2GG/)	.	2d\	-lum	8B-\L	.	4g\	.
.	.	.	.	8c\J	.	.	.
.	.	.	.	2d\	.	8g\	-dit
.	.	.	.	.	.	8fny\	in
2AA/	.	4r	.	.	.	2e\	cae-
.	.	4A/	se-	8c#X\	-dit	.	.
.	.	.	.	8c#\	in	.	.
4D/	-lu(m)	4F/	-det	8d\L	cae-	2d\	-lum
.	.	.	.	8eny\	.	.	.
4D/	se-	4D/	ad	8f\	.	.	.
.	.	.	.	8e\J	.	.	.
4BB-/	-det	4.B-y\	dex-	2d\	.	2r	.
4GG/	ad	.	.	.	.	.	.
.	.	8B-\	-te-	.	.	.	.
=109-	=109-	=109-	=109-	=109-	=109-	=109-	=109-
4.E-X\	dex-	2G/	-ra(m)	2cny\	-lum	4r	.
.	.	.	.	.	.	4g\	se-
8E-\	-te-	.	.	.	.	.	.
*	*	*	*ij	*	*	*	*
2C/	-ra(m)	2c\	se-	2r	.	4e\	-det
!	!	!	!	!	!	!LO:SIC:v:t=custos a	!
.	.	.	.	.	.	4c/	ad
*	*ij	*	*	*	*	*	*
!	!	!	!	!	!	!LO:LB:g=original	!
2F\	se-	4A\	-det	2r	.	4.a\	dex-
.	.	4F/	ad	.	.	.	.
.	.	.	.	.	.	8a\	-te-
4D/	-det	4.B-\	dex-	4r	.	4f\	-ram
4BB-/	ad	.	.	4d\	se-	4f\	ad
.	.	8B-\	-te-	.	.	.	.
=110-	=110-	=110-	=110-	=110-	=110-	=110-	=110-
4.E-X\	dex-	2G/	-ra(m)	4B-\	-det	8e-X\L	dex-
*	*	*	*Xij	*	*	*	*
.	.	.	.	.	.	8f\J	te-
.	.	.	.	4G/	ad	2g\	-ra(m)
8E-\	-te-	.	.	.	.	.	.
4C/	-ra(m)	2.c\	Pa-	[2e-X\	dex-	.	.
*	*Xij	*	*	*	*	*	*
8E-X\L	Pa-	.	.	.	.	4g\	P(at)-
8F\J	.	.	.	.	.	.	.
8G\L	.	.	.	8e-]	.	2g\	-ris
8A\J	.	.	.	8e-\	-te-	.	.
!	!	!	!	!LO:SIC:v:t=custos c	!	!	!
4B-\	.	2B-\	.	4d\	-ra(m)	.	.
*	*	*	*	*	*	*	*ij
!	!	!	!	!LO:LB:g=original	!	!	!
4E-\	.	.	.	2c\	Pa-	(4g\	P(at)-
!LO:SIC:v:t=custos BB	!	!LO:SIC:v:t=custos B	!	!	!	!	!
4F\	.	4A\	.	.	.	4f\)	.
!LO:PB:g=original	!	!LO:LB:g=original	!	!	!	!	!
=111-	=111-	=111-	=111-	=111-	=111-	=111-	=111-
2BB-/	-tris	2B-\	-tris	2d\	-tris	4f\	-ris
*	*	*	*	*	*	*	*Xij
.	.	.	.	.	.	4f\	Et
2r	.	2B-\	&	2d\	&	4.f\	I-
.	.	.	.	.	.	8e-X\	-te-
1r	.	4.B-\	I-	4.d\	I-	4d\	-rum
.	.	.	.	.	.	4f\	ven-
.	.	8A\	-te-	8c\	-te-	.	.
.	.	4G/	-ru(m)	4B-\	-rum	4e-X\	-tu-
.	.	4B-\	Ven-	4d\	ven-	4d\	-r(us)
=112-	=112-	=112-	=112-	=112-	=112-	=112-	=112-
2r	.	4A/	-tu-	4c\	-tu-	4f\	e(st)
.	.	4G/	.	4B-\	-r(us)	4eny\	cu(m)
2FF/	cum	4.F/	.	4.c\	e(st)	4.a\	glo-
.	.	8F/	-r(us)	8c\	cum	8a\	-ri-
4.C/	glo-	2G/	est	4.c\	glo-	2e\	-a
8C/	-ri-	.	.	8C/	-ri-	.	.
4BB-/	-a	4r	.	4G/	-a	2r	.
8.BB-/	iu-	4G/	cum	8.G/	ui-	.	.
16BB-/	-di-	.	.	16G/	-di-	.	.
=113-	=113-	=113-	=113-	=113-	=113-	=113-	=113-
2AA/	-ca-	4c\	glo-	2A/	-ca-	4r	.
.	.	8c\	-ri-	.	.	4c/	cum
.	.	8c\	-a	.	.	.	.
4GG/	-re	4.B-\	iu-	2D/	-re	4g\	glo-
4GG/	cu(m)	.	.	.	.	8g\	-ri-
.	.	8B-\	-di-	.	.	8g\	-a
4.D/	gl(o-	8A\L	-ca-	4r	.	4.f\	iu-
.	.	8G\	.	.	.	.	.
.	.	8A\	.	4D/	cum	.	.
8D/	-ri-	8B-\J	.	.	.	8f\	-di-
!	!	!	!	!	!	!LO:SIC:v:t=custos d	!
4C/	-a)	2c\	.	4A/	glo-	2e\	-ca-
8.C/	iu-	.	.	8A/	-ri-	.	.
.	.	.	.	8A/	-a	.	.
16C/	-di-	.	.	.	.	.	.
!	!	!	!	!	!	!LO:LB:g=original	!
=114-	=114-	=114-	=114-	=114-	=114-	=114-	=114-
(2BB-/	-ca-	1F	-re	2B-\	iu-	2d\	-re
2AA/)	.	.	.	2c\	-di-	4.c/	iu-
.	.	.	.	.	.	8c/	-di-
4BB-/	-re	1r	.	2d\	-ca-	2B-/	-ca-
2B-\	ju-	.	.	.	.	.	.
.	.	.	.	2c\	-re	4F/	-re
4A\	-di-	.	.	.	.	8F/	iu-
.	.	.	.	.	.	8F/	-di-
=115-	=115-	=115-	=115-	=115-	=115-	=115-	=115-
2B-\	-ca-	4r	.	4.B-\	ui-	8B-/L	-ca-
.	.	.	.	.	.	8c/	.
.	.	2B-\	iu-	.	.	8d/	.
.	.	.	.	8c\	-di-	8e/J	.
2F\	-re	.	.	4d\	-ca-	2f\	.
.	.	4A\	-di-	8c\L	.	.	.
.	.	.	.	8d\J	.	.	.
4r	.	2c\	-ca-	2e-X\	.	4g\	-re
*	*ij	*	*	*	*	*	*
2C/	ju-	.	.	.	.	2g\	iu-
!	!	!	!	!LO:SIC:v:t=custos c	!	!	!
.	.	2G/	-re	2d\	-re	.	.
!LO:N:acc=#	!	!	!	!	!	!	!
4BBn/	-di-	.	.	.	.	4d\	-di-
!	!	!	!	!LO:LB:g=original	!	!	!
=116-	=116-	=116-	=116-	=116-	=116-	=116-	=116-
(2C/	-ca-	4r	.	2c\	iu-	8c\L	-ca-
.	.	.	.	.	.	8d\	.
.	.	2c\	iu-	.	.	8e-X\	.
.	.	.	.	.	.	8f\J	.
2G\)	.	.	.	2G/	-di-	4e-X\	.
!	!	!LO:TX:a:t=P:problem:# above	!	!	!	!	!
!	!	!LO:N:acc=#	!	!	!	!	!
.	.	4Bn\	-di-	.	.	4d\	.
4C/	-re	2e-X\	-ca-	0G	-ca-	2c\	.
*	*Xij	*	*	*	*	*	*
2C/	iu-	.	.	.	.	.	.
.	.	2.d\	.	.	.	2d\	-re
!LO:N:acc=#	!	!	!	!	!	!	!
4BBn/	-di-	.	.	.	.	.	.
=117-	=117-	=117-	=117-	=117-	=117-	=117-	=117-
4.E-X\	-ca-	.	.	.	.	4f\	iu-
.	.	2c\	.	.	.	4e-X\	-di-
8F\	.	.	.	.	.	.	.
!LO:SIC:v:t=custos C	!	!	!	!	!	!	!
2G\	.	.	.	.	.	2d\	-ca-
!	!	!LO:TX:a:t=P:problem:# above	!	!	!	!	!
!	!	!LO:N:acc=#	!	!	!	!	!
.	.	4Bn\	.	.	.	.	.
!LO:LB:g=original	!	!LO:SIC:v:t=custos G	!	!	!	!	!
2C/	-re	1c	-re	1G	-re	1e-X	-re
2C/	Vi-	.	.	.	.	.	.
!	!	!LO:PB:g=original	!	!	!	!	!
=118-	=118-	=118-	=118-	=118-	=118-	=118-	=118-
!LO:N:acc=#	!	!	!	!	!	!	!
2BBn/	-uos	2r	.	1r	.	0r	.
2E-X\	&	2G/	Vi-	.	.	.	.
[0D	mor-	2F#X/	-uos	2r	.	.	.
.	.	2B-\	Et	2G/	Vi-	.	.
=119-	=119-	=119-	=119-	=119-	=119-	=119-	=119-
.	.	(2A/	mor-	2F#X/	-uos	2r	.
.	.	4.G/)	.	2B-\	et	2G/	Vi-
.	.	8G/	-tu-	.	.	.	.
2D\]	.	4D/	-os	4A/	.	4F#X/	-uos
.	.	4d\	&	2G/	mor-	4B-/	&
2D\	-tu-	4.A\	mor-	.	.	4.d/	mor-
.	.	.	.	4F#X/	-tu-	.	.
!	!	!	!	!	!	!LO:SIC:v:t=custos d	!
.	.	8A\	-tu-	.	.	8d/	-tu-
!	!	!	!	!	!	!LO:LB:g=original	!
=120-	=120-	=120-	=120-	=120-	=120-	=120-	=120-
2GG/	-os	2B-X\	-os	4G/	-os	1d	-os
.	.	.	.	2d\	Cu-	.	.
2G\	Cu-	2B-\	Cu-	.	.	.	.
.	.	.	.	4B-\	-i(us)	.	.
4Eny\	-i(us)	4G/	-i(us)	2.c\	re-	4eny\	Cu-
8F\L	re-	8A/L	re-	.	.	4c\	-i(us)
8E\J	.	8G/J	.	.	.	.	.
8D\L	.	8Fny/L	.	.	.	2d\	re-
8C\J	.	8Eny/J	.	.	.	.	.
!	!	!	!	!LO:N:acc=#	!	!	!
4D\	.	4F/	.	4Bn\	.	.	.
=121-	=121-	=121-	=121-	=121-	=121-	=121-	=121-
2C/	-gni	2E/	-gni	2c\	-gni	2G/	-gni
2C/	n(on)	2r	.	4G/	n(on)	4r	.
.	.	.	.	2A/	e-	4e\	non
2D/	e-	2A/	non	.	.	2f\	e-
.	.	.	.	2Fny/	-rit	.	.
4BB-y/	-rit	[2B-\	e-	.	.	4d\	-rit
4BB-/	n(on)	.	.	4B-y/	n(on)	4d\	n(on)
=122-	=122-	=122-	=122-	=122-	=122-	=122-	=122-
4.E-X\	e-	8B-]	.	4.G/	e-	4.g\	e-
.	.	8A\J	.	.	.	.	.
.	.	2G/	.	.	.	.	.
8D\	.	.	.	16A/LL	.	8f\	-rit
.	.	.	.	16B-/JJ	.	.	.
4C/	.	.	.	8c\	.	4e-X\	fi-
.	.	.	.	8c\	-rit	.	.
!LO:N:acc=#	!	!	!	!	!	!	!
4BBn/	-rit	4G/	-rit	2d\	fi-	4d\	.
1C	fi-	1G	fi-	.	.	1e-	.
.	.	.	.	8c\L	.	.	.
.	.	.	.	8B-\J	.	.	.
.	.	.	.	2c\	.	.	.
=123-	=123-	=123-	=123-	=123-	=123-	=123-	=123-
*M3/1	*	*M3/1	*	*M3/1	*	*M3/1	*
!	!	!	!	!LO:N:acc=#	!	!	!
0.GG	-nis	0.G	-nis	0Bn	nis	1d	nis
.	.	.	.	.	.	1g	Et
.	.	.	.	1r	.	1d	in
=124-	=124-	=124-	=124-	=124-	=124-	=124-	=124-
00.r	.	00.r	.	1r	.	1.f	Sp(i-
.	.	.	.	1d	Et	.	.
.	.	.	.	.	.	2f\	-ri-
!	!	!	!	!LO:SIC:v:t=custos c	!	!	!
.	.	.	.	1A	in	1f	-t)um
!	!	!	!	!LO:PB:g=original	!	!	!
=125-	=125-	=125-	=125-	=125-	=125-	=125-	=125-
.	.	.	.	1.c	Spi-	0e-X	San-
.	.	.	.	2c\	-ri-	.	.
.	.	.	.	1c	-tum	1e-	-ctum
=126-	=126-	=126-	=126-	=126-	=126-	=126-	=126-
!	!	!LO:SIC:v:t=custos c	!	!	!	!	!
1r	.	00.r	.	0B-y	San-	0d	D(o-
1G	Et	.	.	.	.	.	.
1D	in	.	.	1B-	-ctu(m)	1d	-mi)-
=127-	=127-	=127-	=127-	=127-	=127-	=127-	=127-
1.F	Sp(i-	.	.	1.A	Do-	1c	-num
.	.	.	.	.	.	2c/	&
2F\	-ri-	.	.	2G/	.	2B-/	Vi-
1F	-t)um	.	.	2A/	.	2c/	-vi-
!	!	!	!	!	!	!LO:SIC:v:t=custos e-	!
.	.	.	.	2B-\	.	2d/	-fi-
!	!	!LO:LB:g=original	!	!	!	!LO:PB:g=original	!
=128-	=128-	=128-	=128-	=128-	=128-	=128-	=128-
0E-X	Sa(n)-	1r	.	0c	.	1.e-X	-can-
.	.	1c	Et	.	.	.	.
.	.	.	.	.	.	2f\	.
!LO:SIC:v:t=custos D	!	!	!	!	!	!	!
1E-	-ctu(m)	1G	in	1c	-mi-	2g\	.
.	.	.	.	.	.	2e-\	.
!LO:LB:g=original	!	!	!	!	!	!	!
=129-	=129-	=129-	=129-	=129-	=129-	=129-	=129-
2D/	Do-	1.B-	Spi-	1d	-num	0f	.
2C/	.	.	.	.	.	.	.
2BB-y/	.	.	.	1r	.	.	.
2C/	.	2B-\	-ri-	.	.	.	.
2D/	.	1B-	-tum	1r	.	1f	-tem
2Eny\	.	.	.	.	.	.	.
=130-	=130-	=130-	=130-	=130-	=130-	=130-	=130-
1.F	.	0A	S(an)-	1.A	Et	1.c	Et
2F\	-mi-	.	.	2G/	vi-	2B-/	vi-
1F	-num	1A	-ctu(m)	2A/	-ui-	2c/	-ui-
.	.	.	.	2B-\	-fi-	2d/	-fi-
=131-	=131-	=131-	=131-	=131-	=131-	=131-	=131-
1.C	&	0G	D(o-	0c	-can-	1.e-X	-can-
2BB-/	Vi-	.	.	.	.	2d\	.
2C/	-ui-	1G	-mi)-	1c	-tem	2e-\	.
2D/	-fi-	.	.	.	.	2f\	.
=132-	=132-	=132-	=132-	=132-	=132-	=132-	=132-
0.E-X	-can-	0.G	-num	1.B-	.	0.g	.
.	.	.	.	2A/	Et	.	.
.	.	.	.	2B-\	vi-	.	.
.	.	.	.	2c\	-ui-	.	.
=133-	=133-	=133-	=133-	=133-	=133-	=133-	=133-
1BB-	-tem	0.r	.	0d	-fi-	1f	-tem
1B-	qui	.	.	.	.	1f	qui
1A	ex	.	.	1c	-can-	1f	ex
=134-	=134-	=134-	=134-	=134-	=134-	=134-	=134-
0B-	P(a-	1r	.	0d	-tem	0f	P(a-
.	.	1B-	qui	.	.	.	.
1F	-t)re	1A	ex	1c	.	1f	-t)re
=135-	=135-	=135-	=135-	=135-	=135-	=135-	=135-
1r	.	2B-\	.	1r	.	1r	.
.	.	2c\	.	.	.	.	.
*	*ij	*	*	*	*	*	*ij
1BB-	qui	2d\	Pa-	1B-	qui	1f	qui
.	.	2e-X\	.	.	.	.	.
1F	ex	1c	.	1A	ex	1f	ex
=136-	=136-	=136-	=136-	=136-	=136-	=136-	=136-
0BB-	P(a-	0.d	-tre	0B-	Pa-	0f	P(a-
!	!	!	!	!LO:SIC:v:t=custos A	!	!	!
1BB-	-t)re	.	.	1B-	-tre	1f	-t)re
*	*Xij	*	*	*	*	*	*Xij
!	!	!	!	!LO:LB:g=original	!	!	!
=137-	=137-	=137-	=137-	=137-	=137-	=137-	=137-
1.F	Fi-	1.c	Fi-	1.A	Fi-	1.f	Fi-
2F\	-li-	2c\	-li-	2A/	-li-	2f\	-li-
1D	-o	1d	-o-	1B-	-o-	1f	-o-
=138-	=138-	=138-	=138-	=138-	=138-	=138-	=138-
1.E-X	q(ue)	1.B-	-q(ue)	1.G	-q(ue)	1.e-X	-q(ue)
2BB-/	pro-	2B-\	pro-	2d\	pro-	2f\	pro-
!	!	!	!	!	!	!LO:SIC:v:t=custos f	!
1F	-ce-	1A	-ce-	1c	-ce-	1f	-ce-
!	!	!	!	!	!	!LO:LB:g=original	!
=139-	=139-	=139-	=139-	=139-	=139-	=139-	=139-
1BB-	-dit	1B-	-dit	1d	-dit	1f	-dit
1BB-	qui	1B-	qui	1d	qui	1f	qui
!LO:SIC:v:t=custos F	!	!	!	!	!	!	!
1D	cu(m)	1B-	cu(m)	1d	cum	1f	cum
!LO:LB:g=original	!	!	!	!	!	!	!
=140-	=140-	=140-	=140-	=140-	=140-	=140-	=140-
1F	P(a-	1A	P(a-	1c	P(a-	1f	P(at)-
1F	-tre)	1A	-tre)	1c	-t)re	1f	-re
!	!	!LO:SIC:v:t=custos A	!	!	!	!	!
1Eny	&	1G	&	1c	&	1g	&
!	!	!LO:LB:g=original	!	!	!	!	!
=141-	=141-	=141-	=141-	=141-	=141-	=141-	=141-
0F	Fi-	0A	Fi-	0c	Fi-	0f	Fi-
1F	-li-	1A	-li-	1c	-li-	1f	-li-
=142-	=142-	=142-	=142-	=142-	=142-	=142-	=142-
1C	-o	1G	-o	1c	-o	1eny	-o
1C	si-	1G	si-	1c	si-	1e	si-
!LO:N:acc=#	!	!	!	!	!	!	!
1BBn	-mul	1G	-mul	1d	-mul	1d	-mul
=143-	=143-	=143-	=143-	=143-	=143-	=143-	=143-
0C	a-	0G	a-	0c	a-	0e	a-
1AA	-do-	1A	-do-	1c	-do-	1f#X	-do-
=144-	=144-	=144-	=144-	=144-	=144-	=144-	=144-
0GG	-ra-	0B-	-ra-	0d	-ra-	0g	-ra-
1GG	-tur	1B-	-tur	1d	-tur	1g	-tur
=145-	=145-	=145-	=145-	=145-	=145-	=145-	=145-
1r	.	1r	.	1r	.	1r	.
*	*ij	*	*	*	*ij	*	*ij
1G	si-	1B-	si-	1d	si-	1g	si-
1F#X	-mul	1A	-mul	1d	-mul	1a	-mul
=146-	=146-	=146-	=146-	=146-	=146-	=146-	=146-
0G	a-	0B-	a-	0d	a-	0g	a-
1E-X	-do-	1c	-do-	1c	-do-	1g	-do-
=147-	=147-	=147-	=147-	=147-	=147-	=147-	=147-
!	!	!	!	!	!	!LO:N:acc=-	!
1D	-ra-	1A	-ra-	1d	-ra-	1.fn	-ra-
1D	-tur	1A	-tur	1d	-tur	.	.
.	.	.	.	.	.	2f\	-tur
*	*Xij	*	*	*	*Xij	*	*Xij
1BB-y	Et	1B-	&	1d	Et	1f	Et
=148-	=148-	=148-	=148-	=148-	=148-	=148-	=148-
1.C	con-	1.G	con-	1.c	con-	1.e	con-
2BB-/	-glo-	2G/	-glo-	2c\	-glo-	2g\	-glo-
1AA	-ri-	1A	-ri-	2.c\	-ri-	1e	-ri-
!	!	!	!	!LO:SIC:v:t=custos c	!	!	!
.	.	.	.	4c\	-fi-	.	.
!	!	!	!	!LO:LB:g=original	!	!	!
=149-	=149-	=149-	=149-	=149-	=149-	=149-	=149-
1FF	-fi-	1A	-fi-	0c	-ca-	1f	-fi-
*	*	*	*	*	*	*col	*
!	!	!	!	!	!	!LO:SIC:v:t=custos e	!
0GG	-ca-	0G	-ca-	.	.	0d	-ca-
!	!	!	!	!LO:N:acc=#	!	!	!
.	.	.	.	1Bn	.	.	.
*	*	*	*	*	*	*Xcol	*
!	!	!	!	!	!	!LO:LB:g=original	!
=150-	=150-	=150-	=150-	=150-	=150-	=150-	=150-
*M2/1	*	*M2/1	*	*M2/1	*	*M2/1	*
*met(C|)	*	*met(C|)	*	*met(C|)	*	*met(C|)	*
2C/	-tur	4G/	-tur	2c\	-tur	2e\	-tur
.	.	8G/	qui	.	.	.	.
.	.	8G/	lo-	.	.	.	.
4.C/	qui	4.c\	-cu-	2r	.	4.e\	qui
8C/	lo-	8B-\	-t(us)	.	.	8e\	lo-
4.Fny\	-cu-	2A\	e(st)	4.c\	Qui	4.a\	-cu-
8Eny\	-t(us)	.	.	8c\	lo-	8g\	-t(us)
!LO:SIC:v:t=custos G	!	!	!	!	!	!	!
2D/	e(st)	4.d\	per	4.f\	-cu-	2f\	e(st)
.	.	8c\	Pro-	8eny\	.	.	.
!LO:LB:g=original	!	!	!	!	!	!	!
=151-	=151-	=151-	=151-	=151-	=151-	=151-	=151-
2.G\	per	4.B-\	-phe-	2d\	-t(us)	2.g\	per
!	!	!LO:SIC:v:t=custos B	!	!	!	!	!
.	.	8A\	.	.	.	.	.
!	!	!LO:LB:g=original	!	!	!	!	!
.	.	8B-\L	.	4.d\	e(st)	.	.
.	.	8c\J	.	.	.	.	.
4D/	Pro-	4d\	.	.	.	4f\	Pro-
.	.	.	.	8f\	per	.	.
(2E-X\	-phe-	8c\L	.	4.e-X\	Pro-	(2g\	-phe-
.	.	8B-\J	.	.	.	.	.
.	.	2B-\	.	.	.	.	.
.	.	.	.	8d\L	.	.	.
2F\)	.	.	.	8c\	.	2f\)	.
.	.	.	.	8B-y\J	.	.	.
.	.	4A\	-tas	4c\	-phe-	.	.
=152-	=152-	=152-	=152-	=152-	=152-	=152-	=152-
4BB-/	-tas	2B-\	.	2d\	-tas	2f\	-tas
4BB-/	&	.	.	.	.	.	.
4D/	V-	4r	.	2r	.	2r	.
4BB-/	-na(m)	4F/	Et	.	.	.	.
4F\	Sa(n)-	4A/	V-	2r	.	1r	.
8F\	-cta(m)	4F/	-nam	.	.	.	.
8F\	Ca-	.	.	.	.	.	.
8Eny\L	-tho-	4c\	San-	4r	.	.	.
8D\	.	.	.	.	.	.	.
8E\	.	8c\	-cta(m)	4G/	Et	.	.
8F\J	.	8c\	Ca-	.	.	.	.
=153-	=153-	=153-	=153-	=153-	=153-	=153-	=153-
4.G\	.	4.B-\	-tho-	4B-\	V-	4r	.
.	.	.	.	4G/	-na(m)	4d\	Et
16F\LL	.	16A/LL	.	.	.	.	.
16E\JJ	.	16G/JJ	.	.	.	.	.
4.D\	.	4.A/	.	4d\	San-	4f\	v-
.	.	.	.	8d\	-cta(m)	4d\	-nam
8E\	.	8A/	-li-	8d\	Ca-	.	.
4.F\	.	2A/	-ca(m)	4.c\	-tho-	4a\	San-
.	.	.	.	.	.	8a\	-cta(m)
8F\	-li-	.	.	8c\	-li-	8a\	Ca-
8C/	-cam	2r	.	2c\	-cam	4.g\	-tho-
8C/	&	.	.	.	.	.	.
8.E\	A-	.	.	.	.	.	.
.	.	.	.	.	.	8g\	-li-
16F\	-po-	.	.	.	.	.	.
=154-	=154-	=154-	=154-	=154-	=154-	=154-	=154-
4.G\	-sto-	8r	.	8r	.	4g\	-ca(m)
.	.	8G/	Et	8B-\	Et	.	.
.	.	8.B-\	A-	8d\	A-	4r	.
8G\	-li-	.	.	8eny\	-po-	.	.
.	.	16c\	-po-	.	.	.	.
2D/	-cam	4.d\	-sto-	4.f\	-sto-	8r	.
.	.	.	.	.	.	8d\	Et
.	.	.	.	.	.	8.f\	A-
!	!	!	!	!LO:SIC:v:t=custos f	!	!	!
.	.	8d\	-li-	8f\	-li-	.	.
.	.	.	.	.	.	16g\	-po-
!	!	!	!	!LO:LB:g=original	!	!	!
8r	.	2c\	-cam	8f\	-cam	4.a\	-sto-
8FF/	Et	.	.	8A\	&	.	.
8.AA/	A-	.	.	8c\	A-	.	.
.	.	.	.	8d\	-pos-	8a\	-li-
16BB-/	-po-	.	.	.	.	.	.
4.C/	-sto-	2c\	Ec-	4.e-X\	-to-	2.g\	-cam
!LO:SIC:v:t=custos GG	!	!	!	!	!	!	!
8C/	-li-	.	.	8e-\	-li-	.	.
!LO:PB:g=original	!	!	!	!	!	!	!
=155-	=155-	=155-	=155-	=155-	=155-	=155-	=155-
4GG/	-cam	4B-\	-cle-	4.d\	-ca(m)	.	.
4FF#X/	Ec-	4A\	.	.	.	4a\	Ec-
.	.	.	.	8d\	Ec-	.	.
4.GG/	-cle-	4.B-\	.	4.d\	-(c)le-	4.g\	-cle-
8GG/	-ſi-	8B-\	-si-	8d\	-ſi-	8g\	-ſi-
!	!	!	!	!	!	!LO:SIC:v:t=custos f	!
1D	-am	1A	-am	1d	-am	1f#X	-am
!	!	!	!	!	!	!LO:LB:g=original	!
=156-	=156-	=156-	=156-	=156-	=156-	=156-	=156-
*M3/1	*	*M3/1	*	*M3/1	*	*M3/1	*
1r	.	1r	.	1r	.	1r	.
1r	.	1r	.	1r	.	1r	.
!	!	!LO:SIC:v:t=custos A	!	!	!	!LO:N:acc=-	!
1BB-	Con-	1B-	Con-	1d	Con-	1fn	Con-
!	!	!LO:LB:g=original	!	!	!	!	!
=157-	=157-	=157-	=157-	=157-	=157-	=157-	=157-
1.F	-fi-	1.A	-fi-	1.c	-fi-	1.f	-fi-
2F\	-te-	2A/	-te-	2c\	-te-	2f\	-te-
1F	-or	1A	-or	1c	-or	1f	-or
=158-	=158-	=158-	=158-	=158-	=158-	=158-	=158-
1F	u-	1A	u-	1c	v-	1f	v-
!	!	!LO:N:acc=#	!	!	!	!	!
1D	-num	1Bn	-num	1d	-nu(m)	1f	-num
1C	ba-	1c	bap-	1G	ba-	1e-X	Bap-
=159-	=159-	=159-	=159-	=159-	=159-	=159-	=159-
0.GG	-pti-	1c	-ti-	0.G	-pti-	1e-	-ti-
!	!	!LO:TX:a:t=P:problem:# above	!	!	!	!	!
!	!	!LO:N:acc=#	!	!	!	!	!
.	.	2Bn\	.	.	.	2d\	.
.	.	2A\	.	.	.	2c/	.
!	!	!LO:TX:a:t=P:problem:# above	!	!	!	!	!
!	!	!LO:N:acc=#	!	!	!	!	!
.	.	1Bn	.	.	.	1d	.
=160-	=160-	=160-	=160-	=160-	=160-	=160-	=160-
*M2/1	*	*M2/1	*	*M2/1	*	*M2/1	*
*met(C|)	*	*met(C|)	*	*met(C|)	*	*met(C|)	*
2C/	-sma	4c\	-sma	2G/	-sma	2eny\	-sma
.	.	4.c\	in	.	.	.	.
4.F\	in	.	.	2r	.	4.a\	in
.	.	8B-\	re-	.	.	.	.
.	.	4.A/	-miſ-	.	.	.	.
8E\	re-	.	.	.	.	8g\	re-
4.D\	-miſ-	.	.	4.f\	in	8f\L	-miſ-
.	.	8A/	-si-	.	.	8e\J	.
.	.	4.d\	-o-	.	.	4.d\	-si-
8D\	-si-	.	.	8eny\	re-	.	.
4.G\	-o-	.	.	4.d\	-miſ-	.	.
.	.	8c\	.	.	.	16e\LL	.
.	.	.	.	.	.	16f\JJ	.
.	.	4.B-\	.	.	.	4.g\	-o-
8F\	.	.	.	8d\	-si-	.	.
=161-	=161-	=161-	=161-	=161-	=161-	=161-	=161-
4.E-X\	.	.	.	4e-X\	-o-	.	.
.	.	8A/	.	.	.	8f\J	.
.	.	2G/	.	4B-\	-nem	2e-X\	.
8D/	.	.	.	.	.	.	.
4C/	.	.	.	4c\	p(ec)-	.	.
!LO:N:acc=#	!	!	!	!	!	!	!
4BBn/	-nem	4G/	-nem	4d\	-ca-	4d\	-nem
4.C/	pec-	4.G/	pec-	4c\	-to-	4.e-X\	pec-
.	.	.	.	2G/	.	.	.
8BB-y/	-a-	8G/	-ca-	.	.	8d\	-ca-
2AA/	-to-	2A/	-to-	.	.	2c/	-to-
!	!	!	!	!LO:TX:a:t=P:problem:# below	!	!	!
!	!	!	!	!LO:SIC:v:t=custos G	!	!	!
.	.	.	.	4F#X/	.	.	.
!	!	!	!	!LO:LB:g=original	!	!	!
=162-	=162-	=162-	=162-	=162-	=162-	=162-	=162-
4GG/	-rum	2D/	-rum	2G/	-rum	4B-/	-ru(m)
2GG/	Et	.	.	.	.	2B-/	et
.	.	2r	.	4G/	Et	.	.
4AA/	ex-	.	.	4F-X/	ex-	4c/	ex-
4.BB-/	-pe-	1r	.	8f\L	-pe-	8d\L	-pec-
.	.	.	.	8eny\	.	8eny\J	.
.	.	.	.	8d\	.	2f\	.
8AA/	.	.	.	8c\J	.	.	.
!LO:SIC:v:t=custos FF	!	!	!	!	!	!	!
2GG/	.	.	.	8B-\L	.	.	.
.	.	.	.	8A\J	.	.	.
!	!	!	!	!	!	!LO:SIC:v:t=custos f	!
.	.	.	.	4B-\	.	4e\	.
!LO:LB:g=original	!	!	!	!	!	!LO:LB:g=original	!
=163-	=163-	=163-	=163-	=163-	=163-	=163-	=163-
2FFny/	-cto	4.c\	re-	2A/	-cto	2f\	-cto
.	.	8B-\	-ſur-	.	.	.	.
4.F\	re-	4A\	-re-	2r	.	2r	.
.	.	4c\	-cti-	.	.	.	.
8E-X\	-ſur-	.	.	.	.	.	.
4D\	-re-	4B-\	-o-	1r	.	1r	.
4F\	-xti-	4A\	-nem	.	.	.	.
4E-X\	-o-	8.G\	mor-	.	.	.	.
.	.	16A\	-tu-	.	.	.	.
4D/	-nem	2B-\	-o-	.	.	.	.
=164-	=164-	=164-	=164-	=164-	=164-	=164-	=164-
2C/	mor-	.	.	2r	.	4.e-X\	re-
.	.	4A\	.	.	.	.	.
.	.	.	.	.	.	8e-\	-ſur-
!	!	!LO:SIC:v:t=custos d	!	!	!	!	!
2BB-/	-tu-	2B-\	-ru(m)	4.B-\	re-	4d\	-re-
.	.	.	.	.	.	4f\	-cti-
.	.	.	.	8A/	-ſur-	.	.
!	!	!LO:PB:g=original	!	!	!	!	!
4C/	-o-	1r	.	4G/	-re-	4e-X\	-o-
8D/L	.	.	.	4B-\	-cti-	4d\	-nem
8E-X/J	.	.	.	.	.	.	.
4F\	.	.	.	4A/	-o-	4.c/	mor-
4E-X\	.	.	.	4G/	-ne(m)	.	.
.	.	.	.	.	.	16d/LL	.
.	.	.	.	.	.	16e-/JJ	.
=165-	=165-	=165-	=165-	=165-	=165-	=165-	=165-
4D\	.	2r	.	8.A\L	mor-	4f\	.
.	.	.	.	16B-\Jk	.	.	.
4C/	.	.	.	2c\	-tu-	4e-X\	-tu-
2G\	.	4r	.	.	.	2d\	-o-
!	!	!	!	!LO:N:acc=#	!	!	!
!	!	!	!	!LO:TX:a:t=P:problem:# above	!	!	!
.	.	4d\	Et	4Bn\	-o-	.	.
2C/	-rum	2e-X\	Vi-	4c\	-ru(m)	2c/	-rum
.	.	.	.	4G/	Et	.	.
2r	.	4d\	-tam	2B-y\	Vi-	2r	.
.	.	4B-\	.	.	.	.	.
=166-	=166-	=166-	=166-	=166-	=166-	=166-	=166-
1r	.	4c\	Ven-	4A/	-ta(m)	00r	.
.	.	4d\	.	4Fny/	v(en)-	.	.
.	.	4.e-X\	-tu-	4G/	-tu-	.	.
.	.	.	.	4A/	-ri	.	.
.	.	8e-\	-ri	.	.	.	.
2D/	Et	2.d\	sae-	8B-/L	sae-	.	.
.	.	.	.	8A/	.	.	.
.	.	.	.	8G/	.	.	.
.	.	.	.	8F/J	.	.	.
2E-X\	Vi-	.	.	4.G/	.	.	.
.	.	4c\	-cu-	.	.	.	.
.	.	.	.	8G/	-cu-	.	.
=167-	=167-	=167-	=167-	=167-	=167-	=167-	=167-
4D/	-tam	2B-\	-li	8F/	-li	.	.
.	.	.	.	8D/	Ven-	.	.
4BB-/	Ven-	.	.	2G/	-tu-	.	.
4C/	-tu-	2A/	Et	.	.	.	.
!	!	!	!	!LO:TX:a:t=P:problem:# below	!	!	!
4D/	-ri	.	.	4F#X/	-ri	.	.
8GG/L	sae-	2B-\	vi-	4.G/	sae-	.	.
8AA/	.	.	.	.	.	.	.
8BB-/	.	.	.	.	.	.	.
8C/J	.	.	.	8G/	-cu-	.	.
!	!	!	!	!LO:SIC:v:t=custos d	!	!	!
!	!	!	!	!LO:N:acc=-	!	!	!
8D\L	.	4A/	-tam	2Fn/	-li	.	.
8Eny\J	.	.	.	.	.	.	.
2F\	.	4F/	ven-	.	.	.	.
!	!	!	!	!LO:PB:g=original	!	!	!
=168-	=168-	=168-	=168-	=168-	=168-	=168-	=168-
!	!	!	!	!LO:TX:a:t=3	!	!	!
.	.	4.G/	-tu-	0r	.	2r	.
4E-X\	.	.	.	.	.	.	.
.	.	8A/	-ri	.	.	.	.
4D/	.	2.B-\	sae-	.	.	2d\	Et
8C/	.	.	.	.	.	.	.
8BB-/	.	.	.	.	.	.	.
4.C/	.	.	.	.	.	2e-X\	Vi-
.	.	4A/	-cu-	.	.	.	.
8C/	-cu-	.	.	.	.	.	.
!LO:SIC:v:t=custos GG	!	!	!	!	!	!	!
2BB-/	-li	4B-\	-li	.	.	4d\	-tam
.	.	4B-\	ven-	.	.	4B-/	Ven-
!LO:LB:g=original	!	!	!	!	!	!	!
=169-	=169-	=169-	=169-	=169-	=169-	=169-	=169-
0r	.	4A/	-tu-	1r	.	4c/	-tu-
.	.	4F/	-ri	.	.	4d\	-ri
.	.	8G/L	sae-	.	.	2e-X\	sae-
.	.	8F/	.	.	.	.	.
.	.	8G/	.	.	.	.	.
.	.	8A/J	.	.	.	.	.
.	.	8B-/L	.	4r	.	2d\	.
.	.	8F/J	.	.	.	.	.
.	.	2B-/	.	4d\	Et	.	.
.	.	.	.	2e-X\	Vi-	4.c/	.
.	.	4A/	-cu-	.	.	.	.
.	.	.	.	.	.	8c/	-cu-
=170-	=170-	=170-	=170-	=170-	=170-	=170-	=170-
1r	.	4B-/	-li	4d\	-ta(m)	4B-/	-li
.	.	4B-/	Ven-	4B-\	ven-	4B-/	Ve(n)-
.	.	4F/	-tu-	4c\	-tu-	4A/	-tu-
!	!	!LO:SIC:v:t=custos C	!	!	!	!LO:N:acc=#	!
.	.	4D/	-ri	4d\	-ri	4Bn/	-ri
!	!	!LO:LB:g=original	!	!	!	!	!
2r	.	8C/L	sae-	4.e-X\	sae-	4.c/	sae-
.	.	8D/	.	.	.	.	.
.	.	8E-X/	.	.	.	.	.
.	.	8F/J	.	8e-\	-cu-	8c/	-cu-
*	*ij	*	*	*	*	*	*
!	!	!	!	!	!	!LO:SIC:v:t=custos d	!
2GG/	Ven-	4.G/	.	2.d\	-li	2B-X/	-li
.	.	8G/	cu-	.	.	.	.
!	!	!	!	!	!	!LO:PB:g=original	!
=171-	=171-	=171-	=171-	=171-	=171-	=171-	=171-
2BB-/	-tu-	2F/	-li	.	.	4r	.
.	.	.	.	4d\	Et	4d\	Et
4AA/	-ri	2r	.	4c\	vi-	2f\	Vi-
4FF/	sae-	.	.	8A\	-tam	.	.
.	.	.	.	8A\	v(en)-	.	.
4GG/	-cu-	0r	.	4B-\	-tu-	4eny\	-tam
4AA/	.	.	.	4c\	-ri	4c/	Ven-
4.BB-/	.	.	.	8B-\L	sae-	8.d\	-tu-
.	.	.	.	8c\	.	.	.
.	.	.	.	.	.	16e\	-ri
.	.	.	.	8d\	.	2f\	sae-
8AA/	-li	.	.	8c\J	.	.	.
*	*Xij	*	*	*	*	*	*
=172-	=172-	=172-	=172-	=172-	=172-	=172-	=172-
4.GG/	sae-	.	.	4.B-\	.	.	.
.	.	.	.	.	.	4e\	-cu-
8GG/	-cu-	.	.	8B-\	cu-	.	.
4FF/	-li	.	.	2A/	-li	4f\	-li
*	*	*	*	*	*	*	*ij
4AA/	ven-	.	.	.	.	4f\	Ven-
8C/L	-tu-	4r	.	0r	.	4.e-X\	-tu-
8D/	.	.	.	.	.	.	.
8E-X/	.	4G/	Et	.	.	.	.
8F/J	.	.	.	.	.	8e-\	-ri
8G\L	.	2B-\	Vi-	.	.	4.d\	sae-
8F\	.	.	.	.	.	.	.
8D\	.	.	.	.	.	.	.
8E-\J	.	.	.	.	.	8d\	-cu-
=173-	=173-	=173-	=173-	=173-	=173-	=173-	=173-
8F\L	.	4A/	-tam	.	.	2.c/	-li
8C\J	.	.	.	.	.	.	.
2F\	-ri	4F/	ven-	.	.	.	.
.	.	4.G/	-tu-	.	.	.	.
4E-X\	sae-	.	.	.	.	4c/	Ven-
.	.	8A/	.	.	.	.	.
4D\	.	2B-\	.	1r	.	8.d\	-tu-
.	.	.	.	.	.	16d\	-ri
4E-X\	.	.	.	.	.	2g\	sae-
4C/	.	2A/	-ri	.	.	.	.
8D/L	.	.	.	.	.	2f\	.
8C/J	.	.	.	.	.	.	.
=174-	=174-	=174-	=174-	=174-	=174-	=174-	=174-
!LO:N:acc=#	!	!	!	!	!	!	!
8BBn/L	.	2.G/	sae-	2r	.	.	.
8GG/J	.	.	.	.	.	.	.
2C/	.	.	.	.	.	4e-X\	.
.	.	.	.	4r	.	4.d\	.
!LO:TX:a:t=P:problem:# below	!	!	!	!	!	!	!
!LO:N:acc=#	!	!	!	!	!	!	!
4BBn/	-cu-	4G/	-cu-	4d\	Et	.	.
.	.	.	.	.	.	8d\	-cu-
2C/	-li	2G/	-li	2e-X\	Vi-	2c/	-li
*	*ij	*	*	*	*	*	*Xij
4r	.	2r	.	4d\	-tam	2r	.
4G\	Ven-	.	.	4B-\	ven-	.	.
=175-	=175-	=175-	=175-	=175-	=175-	=175-	=175-
2B-\	-tu-	0r	.	4.d\	-tu-	0r	.
.	.	.	.	8eny\	.	.	.
4A\	-ri	.	.	2f\	.	.	.
4F\	sae-	.	.	.	.	.	.
4G\	.	.	.	4e-X\	-ri	.	.
!LO:SIC:v:t=custos B	!	!	!	!	!	!	!
4A\	.	.	.	4e-\	Ven-	.	.
!LO:LB:g=original	!	!	!	!	!	!	!
4.B-\	.	.	.	4.d\	-tu-	.	.
8B-\	-cu-	.	.	8d\	-ri	.	.
=176-	=176-	=176-	=176-	=176-	=176-	=176-	=176-
4F\	-li	2r	.	4.A/	sae-	2c/	Et
4F\	Ven-	.	.	.	.	.	.
.	.	.	.	8A/	-cu-	.	.
!	!	!	!	!LO:SIC:v:t=custos c	!	!	!
2C/	-tu-	4r	.	2c\	-li	2e-X\	vi-
*	*	*	*ij	*	*	*	*
.	.	4G/	Et	.	.	.	.
!	!	!	!	!LO:LB:g=original	!	!	!
4GG/	-ri	2B-\	Vi-	0r	.	4d/	-ta(m)
4G\	sae-	.	.	.	.	4B-/	ven-
4F\	.	4A/	-tam	.	.	4c/	-tu-
4D\	.	4F/	Ven-	.	.	4d/	-ri
=177-	=177-	=177-	=177-	=177-	=177-	=177-	=177-
4.C/	.	4G/	-tu-	.	.	4.e-X\	sae-
.	.	4A/	-ri	.	.	.	.
!	!	!	!	!	!	!LO:SIC:v:t=custos d	!
8C/	-cu-	.	.	.	.	8e-\	-cu-
!	!	!	!	!	!	!LO:LB:g=original	!
4BB-/	-li	2.B-\	sae-	.	.	4d\	-li
*	*Xij	*	*	*	*	*	*
4D/	ven-	.	.	.	.	4d\	ven-
4E-X\	-tu-	.	.	2c\	Et	4g\	-tu-
4F\	-ri	4A/	-cu-	.	.	4f\	-ri
4.BB-/	sae-	4B-\	-li	2d\	Vi-	4.f\	sae-
*	*	*	*Xij	*	*	*	*
.	.	4B-\	Et	.	.	.	.
8BB-/	-cu-	.	.	.	.	8f\	-cu-
=178-	=178-	=178-	=178-	=178-	=178-	=178-	=178-
4F\	-li	4A/	vi-	4c\	-ta(m)	4.f\	-li
4F\	Ven-	8F/	-ta(m)	4A\	Ven-	.	.
*	*	*	*	*	*	*	*ij
!	!	!LO:SIC:v:t=custos G	!	!	!	!	!
.	.	8F/	ven-	.	.	8c/	ven-
!	!	!LO:LB:g=original	!	!	!	!	!
4E-X\	-tu-	4G/	-tu-	4B-\	-tu-	4.e-X\	-tu-
4C/	-ri	4A/	-ri	4c\	-ri	.	.
.	.	.	.	.	.	8e-\	-ri
4.BB-/	sae-	4.B-/	sae-	4.d\	sae-	8d\L	sae-
.	.	.	.	.	.	8e-\	.
.	.	.	.	.	.	8.f\J	.
8BB-/	-cu-	8B-/	-cu-	8d\	-cu-	.	.
.	.	.	.	.	.	16f\	-cu-
4F\	-li	2A/	-li	4c\	-li	4f\	-li
*	*	*	*	*	*	*	*Xij
4D\	Vi-	.	.	8d\L	.	2f\	A-
.	.	.	.	8c\J	.	.	.
=179-	=179-	=179-	=179-	=179-	=179-	=179-	=179-
!	!	!	!	!LO:N:acc=#	!	!	!
4G\	-ta(m)	1G	A-	8Bn\L	A-	.	.
.	.	.	.	8G\J	.	.	.
4C/	Ven-	.	.	2c\	.	4e-X\	.
4.GG/	-tu-	.	.	.	.	2d\	.
.	.	.	.	4B\	-men	.	.
8GG/	-ri	.	.	.	.	.	.
4C/	sae-	2G/	-men	4c\	.	4e-X\	-men
8C/L	-cu-	.	.	2c\	.	2e-\	.
8BB-/J	-li	.	.	.	.	.	.
8AA/L	A-	2.F/	.	.	.	.	.
8FF/J	.	.	.	.	.	.	.
4BB-/	.	.	.	4B-y\	.	4d\	.
=180-	=180-	=180-	=180-	=180-	=180-	=180-	=180-
1FF	.	.	.	4A\	.	4c/	A-
.	.	4F/	A-	4d\	A-	2B-/	.
.	.	2F/	-men	2c\	.	.	.
.	.	.	.	.	.	4A/	.
2BB-/	-men.	2F/	.	2d\	.	1B-	-men
4B-\	A-	2r	.	4d\	.	.	.
!LO:SIC:v:t=custos G	!	!	!	!	!	!	!
4A\	.	.	.	4c\	.	.	.
!LO:LB:g=original	!	!	!	!	!	!	!
=181-	=181-	=181-	=181-	=181-	=181-	=181-	=181-
*	*	*	*ij	*	*	*	*
2.G\	.	4d\	A-	4B-\	.	2r	.
.	.	4c\	.	4A/	.	.	.
.	.	1B-	.	2G/	-men	1g	A-
4F\	.	.	.	.	.	.	.
2Eny\	.	.	.	2c\	.	.	.
2F\	.	2A/	-men	2c\	.	2f\	.
=182-	=182-	=182-	=182-	=182-	=182-	=182-	=182-
0C	.	2G/	A-	0c	.	2eny\	.
.	.	2A/	.	.	.	1f	.
.	.	1G	.	.	.	.	.
.	.	.	.	.	.	2e\	.
=183-	=183-	=183-	=183-	=183-	=183-	=183-	=183-
0FFl;;	-men	0Al;<	-men	0cl;<	.	0fl;;	-men.
*	*	*	*Xij	*	*	*	*
==	==	==	==	==	==	==	==
*-	*-	*-	*-	*-	*-	*-	*-
!!!system-decoration: [(*)]
!!!RDF**kern: > = above
!!!RDF**kern: < = below
!!!RDF**kern: l = terminal long
!!!ENC: Berenika Jozajtis
!!!END: 2022-05-11
!!!AIN: 1 alto 1 bass 1 soprn 1 tenor
!!!ENC: Andrzej Kubiczek
!!!END: 2022-05-15
